X:3
M:6/8
K:C
T:III. L\'arov (Mostly)
Q:"Con rubato" 1/8=108
L:1/16
C:Eric Whitacre
z2| !mf!(A,B,CDEC D3CB,2 | !diminuendo(!A,6D6)!diminuendo)! | (dcBcAB GFEFDC | B,A,CB,DG D6 ) | 
!mf!(A,B,^CA,B,C DEFGAB | cdadcd A2)!crescendo(!(d2ga !crescendo)!| !f!c'd'g2)(c'd' fgd2)(dg | [M:3/8]
[Q:"rit. "]ag^fedg | [M:2/4]!diminuendo(!A6)!diminuendo)!z2 | Z | !fermata!Z |]

